!!!!SEGMENT: Ver3010-Quanthai_lassil_morir.krn
!!!id: Ver3010
!!!AGN: Madrigal
!!!SCT: Owens (1989)
!!!voices: 5
!!!COM: Philippe Verdelot
!!!OTL: Quant'hai lass'il morir
**kern	**kern	**kern	**kern	**kern
*part5	*part4	*part3	*part2	*part1
*staff5	*staff4	*staff3	*staff2	*staff1
*I"Bassus	*I"Tenor II	*I"Tenor I	*I"Altus	*I"Superius
*I'B	*I'T. II	*I'T. I	*I'A	*I'S
*clefF4	*clefGv2	*clefGv2	*clefG2	*clefG2
*k[b-]	*k[b-]	*k[b-]	*k[b-]	*k[b-]
*F:	*F:	*F:	*F:	*F:
*M2/1	*M2/1	*M2/1	*M2/1	*M2/1
*met(C|)	*met(C|)	*met(C|)	*met(C|)	*met(C|)
=1	=1	=1	=1	=1
1r	0r	0d	0r	0r
[1G	.	.	.	.
=2	=2	=2	=2	=2
1G]	0d	1B-y	0r	0r
1F	.	1A	.	.
=3	=3	=3	=3	=3
1G	1B-y	1.d	0r	0r
[1D	1A	.	.	.
.	.	2c	.	.
=4	=4	=4	=4	=4
2D]	1.d	1B-y	0r	0r
2E	.	.	.	.
1F	.	1A	.	.
.	2c	.	.	.
=5	=5	=5	=5	=5
1G	1B-y	1.d	0r	0r
1D	1A	.	.	.
.	.	2c	.	.
=6	=6	=6	=6	=6
1.E-X	1.G	2.B-y	0r	0r
.	.	4A	.	.
.	.	2G	.	.
2D	2F	[2A	.	.
=7	=7	=7	=7	=7
2C	2E	4A]	0r	0r
.	.	4G	.	.
2BB-y	2D	1G	.	.
1AA	1C	.	.	.
.	.	2F#i	.	.
=8	=8	=8	=8	=8
0GG	1D	1G	1r	1r
.	2r	2r	1d	2r
.	2D	2G	.	2dd
=9	=9	=9	=9	=9
0r	2G	2B-y	2d	2dd
.	2G	2B-y	2d	2dd
.	2G	2B-y	2d	2b-y
.	2G	2B-y	2e	2b-y
=10	=10	=10	=10	=10
0r	1F	1c	1f	4a
.	.	.	.	4g
.	.	.	.	4a
.	.	.	.	4b-y
.	2r	1A	2f	2cc
.	2F	.	2f	2dd
=11	=11	=11	=11	=11
0r	2G	2G	2d	2b-y
.	2D	2F	2.d	2a
.	1E	1G	.	1g
.	.	.	8c#iL	.
.	.	.	8BnXiJ	.
.	.	.	2c#i	.
=12	=12	=12	=12	=12
0r	0D	1A	[0d	0f
.	.	2r	.	.
.	.	2A	.	.
=13	=13	=13	=13	=13
1r	2r	0B-y	0d]	0r
.	2D	.	.	.
1GG	1G	.	.	.
=14	=14	=14	=14	=14
0D	2F	1A	2r	0r
.	2F	.	2d	.
.	[1A	2r	1f	.
.	.	2F	.	.
=15	=15	=15	=15	=15
1C	1A]	2c	1e	0r
.	.	2c	.	.
1E-X	1G	2B-y	1g	.
.	.	[2G	.	.
=16	=16	=16	=16	=16
2E-i	1B-y	4G]	2g	0r
.	.	4A	.	.
2E-i	.	4B-y	2g	.
.	.	4c	.	.
2D	2B-y	1d	2f	.
2BB-y	2B-y	.	2d	.
=17	=17	=17	=17	=17
2C	2A	2c	2e	0r
2D	2A	2A	2f	.
[1E-X	2.G	2c	[1g	.
.	.	2B-y	.	.
.	4A	.	.	.
=18	=18	=18	=18	=18
1E-]	0B-y	4G	2g]	0r
.	.	4A	.	.
.	.	4B-y	4f	.
.	.	4c	4e	.
[1D	.	[1d	[1f	.
=19	=19	=19	=19	=19
1D]	0A	1d]	1f]	1r
2r	.	2r	2r	2r
2D	.	2A	2d	2f
=20	=20	=20	=20	=20
2G	0r	2B-y	2d	2g
2G	.	2B-y	2e	2g
2F	.	2c	2f	2a
2F	.	2c	2f	2a
=21	=21	=21	=21	=21
2.BB-y	0r	1.d	1.f	1.b-y
4C	.	.	.	.
4D	.	.	.	.
4E	.	.	.	.
2F	.	2c	2f	2a
=22	=22	=22	=22	=22
2C	0r	2c	2e	2g
2D	.	2A	2.d	2f
1AA	.	2.A	.	1e
.	.	.	8c#iL	.
.	.	.	8BnXiJ	.
.	.	.	2c#i	.
.	.	4G	.	.
=23	=23	=23	=23	=23
1D	0r	2.F	1d	0d
.	.	4E	.	.
1r	.	[1D	1r	.
=24	=24	=24	=24	=24
1A	1d	1D]	1f	0r
[1B-y	[1d	1r	[1f	.
=25	=25	=25	=25	=25
2B-]	2d]	0r	2f]	0r
2A	2c	.	2f	.
2G	2B-y	.	2e	.
2F	2A	.	2d	.
=26	=26	=26	=26	=26
1E	1G	0r	1c	0r
1D	1A	.	1d	.
=27	=27	=27	=27	=27
2r	2r	1F	2r	1a
2D	2d	.	2f	.
2D	2d	2F	2f	2a
2D	[2d	2F	2f	2a
=28	=28	=28	=28	=28
1GG	2d]	1G	4d	1b-y
.	.	.	4c	.
.	2G	.	4d	.
.	.	.	4e	.
1D	2A	1F	4f	1a
.	.	.	4g	.
.	2A	.	4a	.
.	.	.	4f	.
=29	=29	=29	=29	=29
1GG	4G	1.B-y	1g	1.dd
.	4A	.	.	.
.	4B-y	.	.	.
.	4c	.	.	.
1BB-y	4d	.	2f	.
.	4e	.	.	.
.	2f	2B-y	2d	2dd
=30	=30	=30	=30	=30
2C	2e	2G	2e	2cc
2D	2d	2F	2f	2a
1GG	2.B-y	1G	1d	1b-y
.	4c	.	.	.
=31	=31	=31	=31	=31
0D	1d	[0F	1f	0a
.	2r	.	2r	.
.	2A	.	2d	.
=32	=32	=32	=32	=32
2r	2A	1F]	2d	0r
2D	2A	.	2d	.
2.BB-y	1B-y	2r	1d	.
.	.	2F	.	.
4C	.	.	.	.
=33	=33	=33	=33	=33
2D	1A	2F	1d	0r
2D	.	2F	.	.
4GG	2r	1G	2.d	.
4AA	.	.	.	.
4BB-y	[2d	.	.	.
4C	.	.	4c	.
=34	=34	=34	=34	=34
4D	2d]	1F	2B-y	0r
4E	.	.	.	.
2F	2c	.	2A	.
2G	2B-y	2r	2G	.
2D	2A	[2d	2F	.
=35	=35	=35	=35	=35
1E-X	1G	2d]	1r	1r
.	.	2c	.	.
1D	1F	2B-y	2r	2r
.	.	2A	2d	2a
=36	=36	=36	=36	=36
1GG	1r	1G	2d	2b-y
.	.	.	2e	2g
2r	2r	2F	1f	1a
2D	2A	2F	.	.
=37	=37	=37	=37	=37
2BB-y	2B-y	2D	1r	1r
2C	2G	2E	.	.
1FF	1A	1F	2r	2r
.	.	.	2f	2a
=38	=38	=38	=38	=38
0r	1r	0r	2d	2b-y
.	.	.	2e	2g
.	1d	.	2f	1a
.	.	.	2f	.
=39	=39	=39	=39	=39
0r	2c	0r	2e	1a
.	2A	.	2c	.
.	2B-y	.	2d	2g
.	2c	.	2e	2g
=40	=40	=40	=40	=40
0r	2d	0r	2f	2f
.	2G	.	2.e	2.g
.	1B-y	.	.	.
.	.	.	4d	4f
.	.	.	[2d	4e
.	.	.	.	4d
=41	=41	=41	=41	=41
1r	1A	1r	2d]	1e
.	.	.	2c#i	.
2r	1D	2r	[1d	1d
2F	.	2A	.	.
=42	=42	=42	=42	=42
2G	0r	2B-y	1d]	0r
2F	.	2A	.	.
4G	.	2B-y	1r	.
4F	.	.	.	.
4E	.	[2d	.	.
4D	.	.	.	.
=43	=43	=43	=43	=43
1E	0r	4d]	0r	0r
.	.	8c#iL	.	.
.	.	8BnXiJ	.	.
.	.	2c#i	.	.
1D	.	[1d	.	.
=44	=44	=44	=44	=44
2r	2r	1d]	1f	1a
2D	2d	.	.	.
2.C	2.e	1r	2.g	2.cc
4D	4d	.	4g	4b-y
=45	=45	=45	=45	=45
2F	2c	0r	2f	2a
2G	2B-y	.	2e	2g
2D	2A	.	2d	1f
2D	2A	.	2d	.
=46	=46	=46	=46	=46
2r	2r	2r	2r	1f
2D	2F	2A	2d	.
2D	2F	2A	2d	1r
2D	2F	2A	2d	.
=47	=47	=47	=47	=47
2C	2G	2c	2e	0r
2C	2A	2c	2e	.
1D	4A	1A	1d	.
.	4G	.	.	.
.	4F	.	.	.
.	4E	.	.	.
=48	=48	=48	=48	=48
1BB-y	4D	1d	1f	0r
.	4E	.	.	.
.	4F	.	.	.
.	4G	.	.	.
2C	2A	2.c	2e	.
2C	[2G	.	2e	.
.	.	4B-y	.	.
=49	=49	=49	=49	=49
1D	2G]	1A	1d	1r
.	2F	.	.	.
1C	2G	1c	1e	2r
.	2G	.	.	2g
=50	=50	=50	=50	=50
0r	2.A	1r	1r	2.f
.	4G	.	.	4e
.	2F	2r	2r	2d
.	2E	2G	2g	2c
=51	=51	=51	=51	=51
0r	2D	2.A	2.f	4d
.	.	.	.	4e
.	2D	.	.	4f
.	.	4G	4e	4g
.	1r	2F	2d	4a
.	.	.	.	4f
.	.	2E	2c	4g
.	.	.	.	4a
=52	=52	=52	=52	=52
0r	2r	2D	2d	2b-y
.	2F	2D	2f	2a
.	2G	2B-y	2e	2g
.	2D	2A	[2d	2f
=53	=53	=53	=53	=53
0r	1E	1G	4d]	1g
.	.	.	8c#iL	.
.	.	.	8BnXiJ	.
.	.	.	2c#i	.
.	1D	1A	1d	1f
=54	=54	=54	=54	=54
2r	2r	2r	2r	2r
2GG	2G	2D	2d	2b-y
2D	2A	2F	2d	2a
2D	2F	2D	2f	2b-y
=55	=55	=55	=55	=55
2C	2G	2E	2e	2cc
2C	2A	2E	2e	2cc
2BB-y	2.B-y	2F	2.d	2.dd
2BB-y	.	[2D	.	.
.	8AL	.	4e	8ccL
.	8GJ	.	.	8b-yJ
=56	=56	=56	=56	=56
2.D	2F	4D]	4f	2a
.	.	4E	4g	.
.	2f	4F	1a	1dd
4E	.	4G	.	.
4F	2.f	4A	.	.
4G	.	4B-y	.	.
4A	.	4c	2a	2cc
4F	4e	4A	.	.
=57	=57	=57	=57	=57
2G	2d	2B-y	2g	2b-y
2A	1c	2c	2e	2.a
2F	.	1d	2f	.
.	.	.	.	4g
2G	2B-y	.	4e	[2g
.	.	.	4d	.
=58	=58	=58	=58	=58
2C	1A	2c	2e	2g]
2D	.	2A	1d	2f#i
2BB-y	[1G	2B-y	.	[1g
[2C	.	2G	[2e	.
=59	=59	=59	=59	=59
2C]	1G]	1c	2e]	1g]
4BB-y	.	.	4d	.
4AA	.	.	4c	.
2GG	2r	2B-y	2d	2r
2GG	2G	2D	2d	2b-y
=60	=60	=60	=60	=60
2D	2A	2F	2d	2a
2D	2F	2D	2f	2b-y
2C	2G	2E	2e	2cc
2C	2A	2E	2e	2cc
=61	=61	=61	=61	=61
2BB-y	2.B-y	2F	2.d	2.dd
2BB-y	.	2.D	.	.
.	8AL	.	4e	8ccL
.	8GJ	.	.	8b-yJ
2.D	2F	.	4f	2a
.	.	4E	4g	.
.	2f	4F	[2a	[2dd
4E	.	4G	.	.
=62	=62	=62	=62	=62
4F	2.f	4A	2a]	2dd]
4G	.	4B-y	.	.
4A	.	4c	2a	2cc
4F	4e	4A	.	.
2G	2d	2B-y	2g	2b-y
2A	[2c	2c	2e	[2a
=63	=63	=63	=63	=63
2F	2c]	1d	2f	4a]
.	.	.	.	4g
2G	2B-y	.	4e	1g
.	.	.	4d	.
2C	1A	2c	2e	.
2D	.	2A	[2d	2f#i
=64	=64	=64	=64	=64
2BB-y	[0Gl	2B-y	2d]	[0gl
1C	.	2G	1e	.
.	.	1c	.	.
4BB-y	.	.	4d	.
4AA	.	.	4c	.
=65	=65	=65	=65	=65
00GGl	00G]	00B-yl	00dl	00g]
==	==	==	==	==
*-	*-	*-	*-	*-
!!!system-decoration: [*]
!!!RDF**kern: i = editorial accidental
!!!RDF**kern: l = terminal long
!!!ENC: Benjamin Ory
!!!END: 2023/10/16
!!!EED: Benjamin Ory
!!!EEV: 2023/10/16
!!!YEC: Copyright 2023 Benjamin Ory, All Rights Reserved
!!!ONB: Translated from MusicXML on 2023/10/16
